client/public/img/game/winter/residues/bush_residue.svg

<?xml version="1.0" encoding="UTF-8" standalone="no"?>
<svg
   version="1.1"
   width="100"
   height="100"
   viewBox="0 0 100 100"
   xml:space="preserve"
   id="svg218"
   xmlns="http://www.w3.org/2000/svg"
   xmlns:svg="http://www.w3.org/2000/svg">
<desc
   id="desc181">Created with Fabric.js 5.3.0</desc>
<defs
   id="defs183" />

<path
   id="path542-2-7"
   style="fill:#b4d2ac;fill-opacity:0.9254902;stroke:#333333;stroke-width:0;stroke-linejoin:round;stroke-dasharray:none"
   d="m 81.432691,91.680746 c -4.309429,-0.342667 -7.256369,-6.462707 -4.804197,-10.183412 4.221662,-6.405448 21.028503,-10.720184 23.143535,-5.035 2.115031,5.685184 -11.00714,15.801389 -18.339338,15.218412 z" /><path
   id="path542-5"
   style="fill:#c8dfc7;fill-opacity:0.9254902;stroke:#333333;stroke-width:0;stroke-linejoin:round;stroke-dasharray:none"
   d="M 83.597244,89.394602 C 77.939252,92.551563 67.176843,87.890181 65.810374,81.556804 63.457907,70.653348 83.716182,54.081068 88.144329,56.637588 c 4.427926,2.55652 5.079658,27.3862 -4.547085,32.757014 z" /><path
   id="path542-0-3"
   style="fill:#e5ede3;fill-opacity:0.9254902;stroke:#333333;stroke-width:0;stroke-linejoin:round;stroke-dasharray:none"
   d="m 75.053551,79.340961 c 0.477744,3.961899 -4.444286,7.469708 -8.2081,5.746422 C 60.365942,82.120989 55.77442,65.94554 58.148552,64.743551 c 2.374353,-1.201988 16.092103,7.85659 16.904999,14.59741 z" /><path
   id="path542-2-7-92"
   style="fill:#b4d2ac;fill-opacity:0.9254902;stroke:#333333;stroke-width:0;stroke-linejoin:round;stroke-dasharray:none"
   d="m 33.598091,66.266984 c -1.897714,3.884301 -8.671696,4.383932 -11.23529,0.739056 -4.413335,-6.274792 -2.270448,-23.493718 3.794102,-23.378759 6.06477,0.114959 10.669999,16.030865 7.441188,22.639703 z" /><path
   id="path542-5-0"
   style="fill:#c8dfc7;fill-opacity:0.9254902;stroke:#333333;stroke-width:0;stroke-linejoin:round;stroke-dasharray:none"
   d="M 32.26412,63.415328 C 33.128526,69.836473 24.848134,78.142731 18.454403,77.093727 7.4472628,75.28798 -0.55037312,50.366554 3.4506556,47.183063 7.4516844,43.999573 30.793745,52.490207 32.26412,63.415328 Z" /><path
   id="path542-0-3-2"
   style="fill:#e5ede3;fill-opacity:0.9254902;stroke:#333333;stroke-width:0;stroke-linejoin:round;stroke-dasharray:none"
   d="m 19.77931,67.681427 c 3.861309,1.007 5.321956,6.872139 2.339644,9.742808 C 16.984691,82.366383 0.25168966,80.712515 0.00320053,78.062923 -0.2452886,75.41333 13.209381,65.96809 19.77931,67.681427 Z" /><path
   id="path3140"
   style="fill:none;fill-opacity:0.92549;stroke:#5b3e25;stroke-width:7.73765;stroke-linecap:round;stroke-dasharray:none;stroke-opacity:1"
   d="M 45.716579,50.411874 64.140589,33.419109 M 35.961833,13.24241 45.820927,50.411874 36.615554,86.959895" /><path
   id="path542-2"
   style="fill:#b4d2ac;fill-opacity:0.9254902;stroke:#333333;stroke-width:0;stroke-linejoin:round;stroke-dasharray:none"
   d="m 68.944786,43.602299 c -4.30943,-0.342446 -7.256369,-6.462486 -4.804197,-10.18319 4.221662,-6.405449 21.028503,-10.720184 23.143535,-5.035 2.115031,5.684962 -11.00714,15.801167 -18.339338,15.21819 z" /><path
   id="path542"
   style="fill:#c8dfc7;fill-opacity:0.9254902;stroke:#333333;stroke-width:0;stroke-linejoin:round;stroke-dasharray:none"
   d="M 71.109338,41.316376 C 65.451347,44.473117 54.688938,39.811956 53.322469,33.478357 50.970002,22.575123 71.228277,6.0028429 75.656203,8.5593628 80.084129,11.115883 80.736081,35.945341 71.109338,41.316376 Z" /><path
   id="path542-0"
   style="fill:#e5ede3;fill-opacity:0.9254902;stroke:#333333;stroke-width:0;stroke-linejoin:round;stroke-dasharray:none"
   d="m 62.565645,31.262736 c 0.477745,3.961898 -4.444285,7.469486 -8.2081,5.746422 -6.47973,-2.966395 -11.071031,-19.142064 -8.696898,-20.343832 2.374132,-1.201989 16.092103,7.856368 16.904998,14.59741 z" /></svg>

<svg xmlns="http://www.w3.org/2000/svg" xml:space="preserve" width="100" height="100"><path d="M81.433 91.68c-4.31-.342-7.257-6.462-4.805-10.183 4.222-6.405 21.029-10.72 23.144-5.035s-11.007 15.802-18.34 15.219z" style="fill:#b4d2ac;fill-opacity:.9254902;stroke:#333;stroke-width:0;stroke-linejoin:round;stroke-dasharray:none"/><path d="M83.597 89.395c-5.658 3.157-16.42-1.505-17.787-7.838-2.352-10.904 17.906-27.476 22.334-24.92 4.428 2.557 5.08 27.387-4.547 32.758z" style="fill:#c8dfc7;fill-opacity:.9254902;stroke:#333;stroke-width:0;stroke-linejoin:round;stroke-dasharray:none"/><path d="M75.054 79.341c.477 3.962-4.445 7.47-8.209 5.746-6.48-2.966-11.07-19.141-8.696-20.343S74.24 72.6 75.054 79.34z" style="fill:#e5ede3;fill-opacity:.9254902;stroke:#333;stroke-width:0;stroke-linejoin:round;stroke-dasharray:none"/><path d="M33.598 66.267c-1.898 3.884-8.672 4.384-11.235.739-4.414-6.275-2.27-23.494 3.794-23.379 6.065.115 10.67 16.031 7.441 22.64z" style="fill:#b4d2ac;fill-opacity:.9254902;stroke:#333;stroke-width:0;stroke-linejoin:round;stroke-dasharray:none"/><path d="M32.264 63.415c.865 6.421-7.416 14.728-13.81 13.679C7.447 75.288-.55 50.367 3.451 47.184c4-3.184 27.343 5.306 28.813 16.231Z" style="fill:#c8dfc7;fill-opacity:.9254902;stroke:#333;stroke-width:0;stroke-linejoin:round;stroke-dasharray:none"/><path d="M19.78 67.681c3.86 1.007 5.321 6.873 2.339 9.743-5.134 4.942-21.867 3.289-22.116.639S13.21 65.968 19.78 67.68Z" style="fill:#e5ede3;fill-opacity:.9254902;stroke:#333;stroke-width:0;stroke-linejoin:round;stroke-dasharray:none"/><path d="M45.717 50.412 64.14 33.419M35.96 13.242l9.86 37.17-9.205 36.548" style="fill:none;fill-opacity:.92549;stroke:#5b3e25;stroke-width:7.73765;stroke-linecap:round;stroke-dasharray:none;stroke-opacity:1"/><path d="M68.945 43.602c-4.31-.342-7.257-6.462-4.804-10.183 4.221-6.405 21.028-10.72 23.143-5.035s-11.007 15.801-18.34 15.218z" style="fill:#b4d2ac;fill-opacity:.9254902;stroke:#333;stroke-width:0;stroke-linejoin:round;stroke-dasharray:none"/><path d="M71.11 41.316c-5.659 3.157-16.421-1.504-17.788-7.838C50.97 22.575 71.228 6.003 75.656 8.56s5.08 27.386-4.547 32.757Z" style="fill:#c8dfc7;fill-opacity:.9254902;stroke:#333;stroke-width:0;stroke-linejoin:round;stroke-dasharray:none"/><path d="M62.566 31.263c.477 3.962-4.445 7.47-8.208 5.746-6.48-2.966-11.071-19.142-8.697-20.344s16.092 7.857 16.905 14.598z" style="fill:#e5ede3;fill-opacity:.9254902;stroke:#333;stroke-width:0;stroke-linejoin:round;stroke-dasharray:none"/></svg>
